X: 46
T:Blodau'r Grug
M:2/2
L:1/8
Q:160
C:Trad
S:Blodau'r Grug Collection Vol. 1
R:March
A:Wales
Z:brian_martin12345@yahoo.com
K:C
cd|e2e2e2dc|d2d2d2cB|c3dc2B2|c2C2CDEF|G2GAF2FG|E2EFD2D2|!EFGAG2^F2|G6:|
|
z2|G2GAF2FG|E2EFD2D2|A2Ac BcdB|!c2c2c2d2|e2e2e2g2|dcBAG2cd|e2dcd4|c6:||
